X:35
T:Biddy Martin's
R:polka
D:Kevin Burke: If the Cap Fits
Z:id:hn-polka-35
M:2/4
L:1/8
K:D
f/e/d Be|ef ed|f/e/d Be|eA d2|f/e/d Be|ef ed|f/e/d Be|eA d2:|
|:f/a/f ef|af ed|f/a/f ef|af e2|f/a/f ef|af ed|f/e/d Be|eA d2:|
<end>
<start>
